svgs/thin/transporter-1.svg

<svg xmlns="http://www.w3.org/2000/svg" viewBox="0 0 512 512"><!--! Font Awesome Pro 6.0.0-alpha3 by @fontawesome - https://fontawesome.com License - https://fontawesome.com/license (Commercial License) --><path d="M320 320H192c-4.406 0-8 3.578-8 8S187.6 336 192 336h128c4.406 0 8-3.578 8-8S324.4 320 320 320zM127.1 287.1c9.186 0 18.29-3.914 24.67-11.48l31.38-37.75L184 280c0 4.418 3.582 8 8 8c4.42 0 8-3.582 8-8V238.8c0-6.09-3.418-11.81-8.939-14.38C180.3 219.3 172.9 227.1 171.7 228.5l-31.31 37.67C134.5 273.2 124.3 273.7 117.8 268.3C111 262.7 110.1 252.5 115.7 245.8l70.53-84.54C195.3 150.3 208.7 144 223 144h66c14.32 0 27.74 6.273 36.84 17.25l70.45 84.44c5.621 6.809 4.682 16.99-1.975 22.6c-7.234 5.973-17.33 4.279-22.63-2.014l-31.38-37.75c-1.186-1.43-8.549-9.17-19.35-4.158c-5.529 2.566-8.953 8.289-8.953 14.38V280c0 4.418 3.582 8 8 8c4.42 0 8-3.582 8-8l-.013-41.25l31.38 37.75c6.375 7.564 15.51 11.48 24.7 11.48c7.207 0 14.44-2.408 20.43-7.354c13.5-11.38 15.38-31.5 4.125-45.13l-70.5-84.5C326 136.4 308 128 289 128h-66c-19 0-36.1 8.375-49.12 23l-70.5 84.5c-11.25 13.62-9.5 33.75 4.125 45.13C113.5 285.6 120.8 287.1 127.1 287.1zM256 96c26.5 0 48-21.5 48-48S282.5 0 256 0S208 21.5 208 48S229.5 96 256 96zM256 16c17.64 0 32 14.36 32 32s-14.36 32-32 32s-32-14.36-32-32S238.4 16 256 16zM504 168h-32v-32C472 131.6 468.4 128 464 128s-8 3.578-8 8v32h-32C419.6 168 416 171.6 416 176s3.594 8 8 8h32v32C456 220.4 459.6 224 464 224s8-3.578 8-8v-32h32C508.4 184 512 180.4 512 176S508.4 168 504 168zM376 448h-240C113.9 448 96 465.9 96 488v16C96 508.4 99.59 512 104 512s8-3.578 8-8v-16c0-13.23 10.78-24 24-24h240c13.22 0 24 10.77 24 24v16c0 4.422 3.594 8 8 8S416 508.4 416 504v-16C416 465.9 398.1 448 376 448zM320 384H192c-4.406 0-8 3.578-8 8S187.6 400 192 400h128c4.406 0 8-3.578 8-8S324.4 384 320 384zM88 360h-32v-32C56 323.6 52.41 320 48 320s-8 3.578-8 8v32h-32C3.594 360 0 363.6 0 368s3.594 8 8 8h32v32C40 412.4 43.59 416 48 416s8-3.578 8-8v-32h32C92.41 376 96 372.4 96 368S92.41 360 88 360z"/></svg>

<svg xmlns="http://www.w3.org/2000/svg" viewBox="0 0 512 512"><!-- Font Awesome Pro 6.0.0-alpha2 by @fontawesome - https://fontawesome.com License - https://fontawesome.com/license (Commercial License) --><path d="M320 320H192C187.594 320 184 323.578 184 328S187.594 336 192 336H320C324.406 336 328 332.422 328 328S324.406 320 320 320ZM127.963 287.979C137.148 287.979 146.27 284.064 152.645 276.5L184.02 238.75V280C184.02 284.418 187.602 288 192.02 288C196.439 288 200.02 284.418 200.02 280V238.75C200.02 232.66 196.602 226.941 191.08 224.371C180.273 219.342 172.898 227.1 171.715 228.523L140.408 266.189C134.469 273.24 124.287 273.717 117.773 268.342C111.002 262.688 110.086 252.525 115.68 245.75L186.213 161.211C195.281 150.273 208.697 144 223.02 144H289.02C303.344 144 316.76 150.273 325.859 161.25L396.307 245.686C401.928 252.494 400.988 262.678 394.332 268.287C387.098 274.26 377.006 272.566 371.699 266.273L340.324 228.523C339.139 227.094 331.775 219.354 320.973 224.365C315.443 226.932 312.02 232.654 312.02 238.75V280C312.02 284.418 315.602 288 320.02 288C324.439 288 328.02 284.418 328.02 280V238.75L359.395 276.5C365.77 284.064 374.893 287.979 384.078 287.979C391.285 287.979 398.529 285.57 404.52 280.625C418.02 269.25 419.895 249.125 408.645 235.5L338.145 151C326.02 136.375 308.02 128 289.02 128H223.02C204.02 128 186.02 136.375 173.895 151L103.395 235.5C92.145 249.125 93.895 269.25 107.52 280.625C113.51 285.57 120.756 287.979 127.963 287.979ZM256 96C282.5 96 304 74.5 304 48S282.5 0 256 0S208 21.5 208 48S229.5 96 256 96ZM256 16C273.645 16 288 30.355 288 48S273.645 80 256 80S224 65.645 224 48S238.355 16 256 16ZM504 168H472V136C472 131.578 468.406 128 464 128S456 131.578 456 136V168H424C419.594 168 416 171.578 416 176S419.594 184 424 184H456V216C456 220.422 459.594 224 464 224S472 220.422 472 216V184H504C508.406 184 512 180.422 512 176S508.406 168 504 168ZM376 448H136C113.938 448 96 465.938 96 488V504C96 508.422 99.594 512 104 512S112 508.422 112 504V488C112 474.766 122.781 464 136 464H376C389.219 464 400 474.766 400 488V504C400 508.422 403.594 512 408 512S416 508.422 416 504V488C416 465.938 398.062 448 376 448ZM320 384H192C187.594 384 184 387.578 184 392S187.594 400 192 400H320C324.406 400 328 396.422 328 392S324.406 384 320 384ZM88 360H56V328C56 323.578 52.406 320 48 320S40 323.578 40 328V360H8C3.594 360 0 363.578 0 368S3.594 376 8 376H40V408C40 412.422 43.594 416 48 416S56 412.422 56 408V376H88C92.406 376 96 372.422 96 368S92.406 360 88 360Z"/></svg>
